icon-themes/sifr_svg/cmd/sc_badcellstyles.svg

<svg viewBox="0 0 16 16" xmlns="http://www.w3.org/2000/svg"><path d="m11 2c-1.656854 0-3 1.3431458-3 3v1h2v-1c0-.5522847.447715-1 1-1s1 .4477153 1 1c0 2.2945515-2.687662 5.568044-4 7.3v1.7h6v-2h-3.576172c1.346124-1.377872 3.576172-4.2033898 3.576172-7 0-2-1.343146-3-3-3zm-10 5v2h5v-2z" fill="#555753"/></svg>

<svg xmlns="http://www.w3.org/2000/svg" viewBox="0 0 16 16">
  <path
     style="fill:#555753"
     d="M 11 2 C 9.343146 2 8 3.3431458 8 5 L 8 6 L 10 6 L 10 5 C 10 4.4477153 10.447715 4 11 4 C 11.552285 4 12 4.4477153 12 5 C 12 7.2945515 9.312338 10.568044 8 12.3 L 8 14 L 14 14 L 14 12 L 10.423828 12 C 11.769952 10.622128 14 7.7966102 14 5 C 14 3 12.656854 2 11 2 z M 1 7 L 1 9 L 6 9 L 6 7 L 1 7 z "
     />
</svg>
